packages/kaspersky-hexa-ui-icons/src/iconsSVGs/48/Reload.svg

<svg xmlns="http://www.w3.org/2000/svg" width="48" height="48" fill="none" viewBox="0 0 48 48"><path fill="currentColor" fill-rule="evenodd" d="M39 16h5.479C41.192 7.574 33.136 2 24 2 11.869 2 2 11.869 2 24s9.869 22 22 22c9.602 0 18.023-6.15 20.955-15.305l1.904.61C43.661 41.291 34.475 48 24 48 10.767 48 0 37.233 0 24S10.767 0 24 0c9.664 0 18.221 5.719 22 14.445V9h2v9h-9z" clip-rule="evenodd"/></svg>

<svg width="48" height="48" viewBox="0 0 48 48" fill="none" xmlns="http://www.w3.org/2000/svg">
<path fill-rule="evenodd" clip-rule="evenodd" d="M39 16H44.479C41.192 7.574 33.136 2 24 2C11.869 2 2 11.869 2 24C2 36.131 11.869 46 24 46C33.602 46 42.023 39.85 44.955 30.695L46.859 31.305C43.661 41.291 34.475 48 24 48C10.767 48 0 37.233 0 24C0 10.767 10.767 0 24 0C33.664 0 42.221 5.719 46 14.445V9H48V18H39V16Z"  fill="currentColor"/>
</svg>
